202404-ahaslides-april/assets/images/peo-1.svg

<svg width="235" height="176" viewBox="0 0 235 176" fill="none" xmlns="http://www.w3.org/2000/svg">
<rect width="195" height="175" fill="#D3C1FF"/>
<mask id="mask0_459_2078" style="mask-type:alpha" maskUnits="userSpaceOnUse" x="12" y="6" width="223" height="170">
<path d="M234.109 6H12V175.118H234.109V6Z" fill="#F4E7D0"/>
</mask>
<g mask="url(#mask0_459_2078)">
<path d="M121.024 84.5265C121.024 84.5265 137.78 67.5744 166.907 108.562C196.033 149.549 202.94 165.667 190.638 179.49C177.413 194.362 151.397 156.759 146.619 150.628C141.841 144.497 107.643 104.863 121.024 84.5265Z" fill="#C48563"/>
<path d="M137.928 189.858L173.156 351.384L137.349 354.69L95.3904 234.495L94.4093 343.889L54.0206 312.349C54.0206 312.349 45.5249 203.818 48.6249 189.888C51.725 175.957 106.427 144.76 137.928 189.858Z" fill="#273250"/>
<path d="M114.255 49.0802L116.393 69.6817C116.393 69.6817 114.372 100.162 106.249 103.655C98.1266 107.147 86.835 72.7622 86.835 72.7622L92.1227 39.0443C92.1227 39.0443 106.24 21.9647 114.255 49.0802Z" fill="#C48563"/>
<path d="M42.8457 84.3978L87.4725 68.829L88.7675 60.6963L116.03 65.8761L116.913 71.8505C116.913 71.8505 150.67 86.4678 152.819 89.7542C154.967 93.0407 146.089 140.385 145.127 158.034C144.166 175.682 143.499 197.657 143.499 197.657L48.0059 194.714L42.8457 84.3978Z" fill="#348EF6"/>
<path d="M115.677 60.6855C99.412 60.1655 92.4271 46.3233 92.4271 46.3233C92.4271 46.3233 85.8444 46.4999 83.3134 41.9871C82.7864 41.0245 82.4688 39.9614 82.3814 38.8675C81.6653 31.1468 88.4049 33.6387 88.4049 33.6387C88.4049 33.6387 81.9203 19.2863 91.1616 12.7232C94.4637 10.2506 98.3922 8.7519 102.502 8.39688C107.266 7.83445 112.076 8.94208 116.114 11.5308C120.152 14.1195 123.167 18.029 124.644 22.5923C124.732 22.8768 124.821 23.1613 124.899 23.4458C125.399 25.2509 125.88 27.1933 126.282 29.2829C128.97 42.6935 129.225 47.8243 129.225 47.8243C129.225 47.8243 131.953 61.2054 115.677 60.6855Z" fill="#C48563"/>
<path d="M99.422 36.0039L103.807 45.8926C103.807 45.8926 117.218 39.6337 128.401 40.9875C128.401 40.9875 129.167 43.5087 130.059 45.9907C131.04 48.6591 131.148 49.4734 131.492 53.6623C131.884 58.4007 126.027 65.621 115.589 63.8356C104.435 61.9324 102.757 56.9684 100.511 51.9456C98.2644 46.9227 95.3213 39.2707 95.3213 39.2707" fill="#F2BE2D"/>
<path d="M112.965 35.902C113.516 35.7604 113.793 34.982 113.582 34.1634C113.372 33.3448 112.755 32.7959 112.204 32.9375C111.653 33.0791 111.377 33.8575 111.587 34.6761C111.797 35.4947 112.414 36.0436 112.965 35.902Z" fill="#2F3545"/>
<path d="M125.066 34.1847C125.617 34.0431 125.893 33.2647 125.683 32.4461C125.472 31.6275 124.855 31.0786 124.304 31.2202C123.753 31.3618 123.477 32.1402 123.687 32.9588C123.898 33.7774 124.515 34.3263 125.066 34.1847Z" fill="#2F3545"/>
<path d="M91.8575 41.3208L85.6084 38.4268" stroke="#282E3E" stroke-width="1.63668" stroke-linecap="round" stroke-linejoin="round"/>
<path d="M118.552 43.3818C118.552 43.3818 118.552 43.8331 118.552 44.4904C118.552 46.2955 118.13 49.6212 115.482 49.3955C112.46 49.1993 111.155 45.7265 110.802 44.5885C110.734 44.3531 110.704 44.2255 110.704 44.2255L118.552 43.3818Z" fill="#282E3E"/>
<path d="M118.552 43.3818C118.552 43.3818 118.552 43.8331 118.552 44.4904C116.019 44.8321 113.456 44.8914 110.91 44.667H110.802C110.734 44.4315 110.704 44.304 110.704 44.304L118.552 43.3818Z" fill="white"/>
<path d="M176.011 177.417C176.011 177.417 193.287 181.851 197.319 165.037C202.479 143.552 213.466 81.777 213.466 81.777C213.466 81.777 208.62 80.9235 198.28 77.3231C197.299 76.9798 175.05 124.638 170.527 140.383C163.778 163.859 165.229 174.14 176.011 177.417Z" fill="#C48563"/>
<path d="M226.7 63.1272C227.749 62.0677 226.601 60.8218 226.601 60.8218C226.601 60.8218 225.454 59.5759 224.306 60.5471C223.413 61.3025 214.741 68.5915 210.287 72.3979C210.024 72.6228 209.809 72.8984 209.656 73.2083C209.502 73.5182 209.412 73.8559 209.392 74.2012C209.372 74.5465 209.422 74.8924 209.538 75.218C209.655 75.5437 209.836 75.8424 210.071 76.0964C210.306 76.3499 210.589 76.5535 210.904 76.6952C211.218 76.8369 211.559 76.9137 211.904 76.921C212.249 76.9283 212.592 76.866 212.913 76.7378C213.233 76.6096 213.525 76.4182 213.77 76.1748C217.949 72.0251 225.866 63.9611 226.7 63.1272Z" fill="#B57559"/>
<path d="M221.873 64.8943C222.923 63.825 221.775 62.5791 221.775 62.5791C221.775 62.5791 220.628 61.3332 219.48 62.3045C218.587 63.0598 209.915 70.3587 205.461 74.165C205.198 74.3899 204.983 74.6656 204.829 74.9754C204.676 75.2853 204.586 75.623 204.566 75.9683C204.546 76.3137 204.595 76.6595 204.712 76.9852C204.829 77.3108 205.01 77.6096 205.245 77.8635C205.48 78.1163 205.764 78.3192 206.079 78.46C206.394 78.6009 206.735 78.6768 207.08 78.6832C207.425 78.6896 207.768 78.6264 208.088 78.4973C208.408 78.3683 208.699 78.1761 208.944 77.9322C213.123 73.7922 221.069 65.7576 221.873 64.8943Z" fill="#B57559"/>
<path d="M226.7 67.5521C227.749 66.4827 226.601 65.2369 226.601 65.2369C226.601 65.2369 225.454 63.991 224.306 64.9622C223.413 65.7176 214.741 73.0164 210.287 76.8228C210.024 77.0476 209.809 77.3233 209.656 77.6331C209.502 77.943 209.412 78.2807 209.392 78.6261C209.372 78.9714 209.422 79.3173 209.538 79.6429C209.655 79.9685 209.836 80.2673 210.071 80.5212C210.306 80.774 210.59 80.977 210.905 81.1178C211.22 81.2586 211.561 81.3345 211.906 81.3409C212.251 81.3473 212.594 81.2841 212.914 81.1551C213.234 81.0261 213.525 80.8338 213.77 80.5899C217.949 76.45 225.866 68.3859 226.7 67.5521Z" fill="#C48563"/>
<path d="M211.504 61.0682C211.54 60.8321 211.517 60.5905 211.435 60.366C211.353 60.1415 211.215 59.9415 211.035 59.7847C210.854 59.6278 210.637 59.5193 210.404 59.4693C210.17 59.4193 209.927 59.4293 209.698 59.4986C208.845 59.7438 207.452 60.4796 205.922 62.7752C204.249 65.1919 202.406 67.4868 200.408 69.6424C199.01 70.766 197.784 72.088 196.769 73.5665C196.101 74.4419 195.625 75.4482 195.371 76.5197C195.117 77.5913 195.092 78.7042 195.297 79.7861C196.641 84.9856 202.164 82.5232 203.391 81.4833C204.617 80.4434 211.376 61.647 211.494 61.0486L211.504 61.0682Z" fill="#C48563"/>
<path d="M195.385 76.8849C195.385 76.8849 195.287 77.1595 195.385 82.977C195.484 88.7945 205.304 91.8062 209.12 88.2353C212.936 84.6644 219.607 76.0019 216.517 72.9608C213.701 70.1648 201.546 75.1582 195.385 76.8849Z" fill="#C48563"/>
<path d="M215.82 72.1244C215.82 72.1244 206.01 71.6241 201.713 76.9217" stroke="#282E3E" stroke-width="1.63668" stroke-linecap="round" stroke-linejoin="round"/>
<path d="M112.957 39.7031C116.036 39.2329 118.13 36.2119 117.633 32.9555C117.136 29.699 114.236 27.4403 111.156 27.9104C108.077 28.3806 105.983 31.4016 106.48 34.658C106.977 37.9145 109.877 40.1732 112.957 39.7031Z" stroke="white" stroke-width="1.03008" stroke-linecap="round" stroke-linejoin="round"/>
<path d="M121.515 34.5402C121.21 33.8873 121.002 33.1932 120.897 32.4801C120.397 29.2231 122.025 26.2702 124.537 25.8876C127.048 25.505 129.442 27.8497 129.971 31.087C130.501 34.3244 128.843 37.2969 126.332 37.6795C125.782 37.7517 125.222 37.7078 124.69 37.5507C124.158 37.3935 123.664 37.1266 123.242 36.7672" stroke="white" stroke-width="1.03008" stroke-linecap="round" stroke-linejoin="round"/>
<path d="M117.551 32.6977L120.857 32.1777" stroke="white" stroke-width="1.03008" stroke-linecap="round" stroke-linejoin="round"/>
<path d="M119.209 32.1001C119.209 32.1001 123.888 36.7011 123.516 37.6821C123.143 38.6632 119.866 41.3217 119.866 41.3217" stroke="#282E3E" stroke-width="1.63668" stroke-linecap="round" stroke-linejoin="round"/>
<path d="M108.073 25.3208C110.219 24.7693 111.784 23.6417 111.568 22.802C111.352 21.9624 109.438 21.7288 107.291 22.2803C105.145 22.8318 103.58 23.9595 103.796 24.7991C104.012 25.6387 105.926 25.8723 108.073 25.3208Z" fill="#F2BE2D"/>
<path d="M124.644 22.5944C124.243 22.7157 123.833 22.8043 123.418 22.8593C121.23 23.1928 119.346 22.771 119.209 21.8782C119.072 20.9855 120.749 20.0535 122.947 19.72C123.112 19.6913 123.279 19.6716 123.447 19.6611C123.921 20.6066 124.321 21.5872 124.644 22.5944Z" fill="#F2BE2D"/>
<path d="M102.502 8.39725C98.3917 8.75227 94.4632 10.2509 91.1611 12.7236C81.9198 19.2866 88.4044 33.639 88.4044 33.639C90.6153 34.3502 92.6305 35.566 94.2905 37.1903C95.0156 38.2663 95.4946 39.4889 95.6934 40.7711L100.314 39.8783L95.5168 19.2768C95.3674 18.7087 95.3313 18.1167 95.4106 17.5346C95.49 16.9525 95.6832 16.3917 95.9793 15.8843C96.2753 15.3769 96.6685 14.9328 97.1362 14.5773C97.6039 14.2218 98.137 13.9619 98.7051 13.8125C99.3599 13.6326 100.058 13.6989 100.667 13.9989C103.208 15.3135 114.961 16.3534 119.159 13.9989C116.971 11.8894 114.342 10.2926 111.461 9.32382C108.58 8.35505 105.52 8.03857 102.502 8.39725Z" fill="#F2BE2D"/>
<path d="M176.952 123.05L169.359 144.632" stroke="#282E3E" stroke-width="1.63668" stroke-linecap="round" stroke-linejoin="round"/>
<path d="M48.4969 82.5112C48.4969 82.5112 72.2965 83.7473 61.0638 132.759C49.8311 181.771 42.4243 197.644 23.883 197.654C3.9878 197.654 14.7693 153.253 16.1623 145.591C17.5554 137.929 24.4127 86.0429 48.4969 82.5112Z" fill="#C48563"/>
<path d="M20.4783 172.491C20.4783 172.491 36.6358 164.947 43.6991 180.722C52.7344 200.892 74.935 259.577 74.935 259.577C74.935 259.577 70.3241 261.313 60.8278 266.748C59.9057 267.278 29.2683 224.564 21.9204 209.849C10.9525 188.051 10.4817 177.701 20.4783 172.491Z" fill="#C48563"/>
</g>
</svg>

<svg xmlns="http://www.w3.org/2000/svg" width="235" height="176" fill="none" viewBox="0 0 235 176">
  <path fill="#D3C1FF" d="M0 0h195v175H0z"/>
  <mask id="a" width="223" height="170" x="12" y="6" maskUnits="userSpaceOnUse" style="mask-type:alpha">
    <path fill="#F4E7D0" d="M234.109 6H12v169.118h222.109V6Z"/>
  </mask>
  <g mask="url(#a)">
    <path fill="#C48563" d="M121.024 84.526s16.756-16.952 45.883 24.036c29.126 40.987 36.033 57.105 23.731 70.928-13.225 14.872-39.241-22.731-44.019-28.862-4.778-6.131-38.976-45.765-25.595-66.101Z"/>
    <path fill="#273250" d="m137.928 189.858 35.228 161.526-35.807 3.306L95.39 234.495l-.98 109.394-40.39-31.54s-8.495-108.531-5.395-122.461c3.1-13.931 57.802-45.128 89.303-.03Z"/>
    <path fill="#C48563" d="m114.255 49.08 2.138 20.602s-2.021 30.48-10.144 33.973c-8.122 3.492-19.414-30.893-19.414-30.893l5.288-33.718s14.117-17.08 22.132 10.036Z"/>
    <path fill="#348EF6" d="m42.846 84.398 44.627-15.569 1.294-8.133 27.263 5.18.883 5.974s33.757 14.618 35.906 17.904c2.148 3.287-6.73 50.631-7.692 68.28-.961 17.648-1.628 39.623-1.628 39.623l-95.493-2.943-5.16-110.316Z"/>
    <path fill="#C48563" d="M115.677 60.685c-16.265-.52-23.25-14.362-23.25-14.362s-6.583.177-9.114-4.336a7.788 7.788 0 0 1-.932-3.12c-.716-7.72 6.024-5.228 6.024-5.228s-6.485-14.353 2.757-20.916a22.093 22.093 0 0 1 11.34-4.326 20.718 20.718 0 0 1 22.142 14.195c.088.285.177.57.255.854a74.48 74.48 0 0 1 1.383 5.837c2.688 13.41 2.943 18.541 2.943 18.541s2.728 13.381-13.548 12.861Z"/>
    <path fill="#F2BE2D" d="m99.422 36.004 4.385 9.889s13.411-6.26 24.594-4.906c0 0 .766 2.522 1.658 5.004.981 2.668 1.089 3.482 1.433 7.671.392 4.739-5.465 11.959-15.903 10.174-11.154-1.904-12.832-6.868-15.078-11.89-2.247-5.023-5.19-12.675-5.19-12.675"/>
    <path fill="#2F3545" d="M112.965 35.902c.551-.142.828-.92.617-1.739-.21-.818-.827-1.367-1.378-1.225-.551.141-.827.92-.617 1.738.21.819.827 1.368 1.378 1.226Zm12.101-1.717c.551-.142.827-.92.617-1.739-.211-.818-.828-1.367-1.379-1.226-.551.142-.827.92-.617 1.739.211.818.828 1.367 1.379 1.226Z"/>
    <path stroke="#282E3E" stroke-linecap="round" stroke-linejoin="round" stroke-width="1.637" d="m91.858 41.32-6.25-2.893"/>
    <path fill="#282E3E" d="M118.552 43.382v1.108c0 1.805-.422 5.131-3.07 4.905-3.022-.196-4.327-3.669-4.68-4.806a8.372 8.372 0 0 1-.098-.364l7.848-.843Z"/>
    <path fill="#fff" d="M118.552 43.382v1.108a34.503 34.503 0 0 1-7.642.177h-.108c-.068-.236-.098-.363-.098-.363l7.848-.922Z"/>
    <path fill="#C48563" d="M176.011 177.417s17.276 4.434 21.308-12.38c5.16-21.485 16.147-83.26 16.147-83.26s-4.846-.853-15.186-4.454c-.981-.343-23.23 47.315-27.753 63.06-6.749 23.476-5.298 33.757 5.484 37.034Z"/>
    <path fill="#B57559" d="M226.7 63.127c1.049-1.06-.099-2.305-.099-2.305s-1.147-1.246-2.295-.275c-.893.756-9.565 8.044-14.019 11.85a2.565 2.565 0 0 0-.216 3.698 2.578 2.578 0 0 0 2.842.643c.32-.128.612-.32.857-.563 4.179-4.15 12.096-12.214 12.93-13.048Z"/>
    <path fill="#B57559" d="M221.873 64.894c1.05-1.069-.098-2.315-.098-2.315s-1.147-1.246-2.295-.275c-.893.756-9.565 8.055-14.019 11.861a2.574 2.574 0 0 0-.895 1.803 2.568 2.568 0 0 0 1.513 2.492 2.57 2.57 0 0 0 2.865-.528c4.179-4.14 12.125-12.174 12.929-13.038Z"/>
    <path fill="#C48563" d="M226.7 67.552c1.049-1.07-.099-2.315-.099-2.315s-1.147-1.246-2.295-.275c-.893.756-9.565 8.054-14.019 11.86a2.565 2.565 0 0 0 2.627 4.332c.32-.128.611-.32.856-.564 4.179-4.14 12.096-12.204 12.93-13.038Zm-15.196-6.484a1.422 1.422 0 0 0-.469-1.283 1.418 1.418 0 0 0-1.337-.286c-.853.245-2.246.98-3.776 3.276a62.095 62.095 0 0 1-5.514 6.867 18.382 18.382 0 0 0-3.639 3.925 7.854 7.854 0 0 0-1.472 6.22c1.344 5.199 6.867 2.736 8.094 1.696 1.226-1.04 7.985-19.836 8.103-20.434l.01.02Z"/>
    <path fill="#C48563" d="M195.385 76.885s-.098.274 0 6.092c.099 5.817 9.919 8.83 13.735 5.258 3.816-3.57 10.487-12.233 7.397-15.274-2.816-2.796-14.971 2.197-21.132 3.924Z"/>
    <path stroke="#282E3E" stroke-linecap="round" stroke-linejoin="round" stroke-width="1.637" d="M215.82 72.124s-9.81-.5-14.107 4.798"/>
    <path stroke="#fff" stroke-linecap="round" stroke-linejoin="round" stroke-width="1.03" d="M112.957 39.703c3.079-.47 5.173-3.491 4.676-6.748-.497-3.256-3.397-5.515-6.477-5.045-3.079.47-5.173 3.492-4.676 6.748.497 3.256 3.397 5.515 6.477 5.045Zm8.558-5.163a7.422 7.422 0 0 1-.618-2.06c-.5-3.257 1.128-6.21 3.64-6.592 2.511-.383 4.905 1.962 5.434 5.199.53 3.237-1.128 6.21-3.639 6.592a3.975 3.975 0 0 1-3.09-.912m-5.691-4.069 3.306-.52"/>
    <path stroke="#282E3E" stroke-linecap="round" stroke-linejoin="round" stroke-width="1.637" d="M119.209 32.1s4.679 4.601 4.307 5.582c-.373.981-3.65 3.64-3.65 3.64"/>
    <path fill="#F2BE2D" d="M108.073 25.32c2.146-.55 3.711-1.678 3.495-2.518-.216-.84-2.13-1.073-4.277-.522-2.146.552-3.711 1.68-3.495 2.52.216.839 2.13 1.072 4.277.52Zm16.571-2.726c-.401.122-.811.21-1.226.265-2.188.334-4.072-.088-4.209-.98-.137-.894 1.54-1.826 3.738-2.159.165-.029.332-.048.5-.059a20.57 20.57 0 0 1 1.197 2.933Z"/>
    <path fill="#F2BE2D" d="M102.502 8.397a22.092 22.092 0 0 0-11.34 4.327c-9.242 6.563-2.758 20.915-2.758 20.915a14.972 14.972 0 0 1 5.886 3.551 8.828 8.828 0 0 1 1.403 3.581l4.621-.893-4.797-20.601a4.475 4.475 0 0 1 3.188-5.465 2.776 2.776 0 0 1 1.962.187c2.541 1.314 14.294 2.354 18.492 0a20.508 20.508 0 0 0-16.657-5.602Z"/>
    <path stroke="#282E3E" stroke-linecap="round" stroke-linejoin="round" stroke-width="1.637" d="m176.952 123.05-7.593 21.582"/>
    <path fill="#C48563" d="M48.497 82.511s23.8 1.236 12.567 50.248-18.64 64.885-37.181 64.895c-19.895 0-9.114-44.401-7.72-52.063 1.392-7.662 8.25-59.548 32.334-63.08Z"/>
    <path fill="#C48563" d="M20.478 172.491s16.158-7.544 23.221 8.231c9.035 20.17 31.236 78.855 31.236 78.855s-4.61 1.736-14.107 7.171c-.922.53-31.56-42.184-38.908-56.899-10.968-21.798-11.438-32.148-1.442-37.358Z"/>
  </g>
</svg>
